X:330
T: NUN REUEN MICH DIE GUTEN SCHUCH
N: E0945
O: Europa, Mitteleuropa, Deutschland
R: Tanz - Lied, Reigen
M: 4/4
L: 1/4
K: F
F | A2A2 | B2B2 | c2c2 | c2z
c | _e2d2 | c2B2 | c2c2 | F3
F | A2A2 | B2B2 | c2c2 | c2z
c | _e2d2 | c2B2 | c2c2 | F3

@@@ Tune index: 4643
